!!!COM: Victor Masse/
!!!CNT: Francais
!!!TXO: Francais
!!!OTL: La chanson de Marie
!!!LYR: Auguste Brizeux
!!!OPR: Chants Bretons
!!!ENC: Jacob Pegg
!!!YOR: Romantic French Song 1830-1870 -David Tunley, ed.,
!!!YOR: New York: Garland Publishing, Inc., 1995, Vol. 4
!!!ODT: 1853/
!!NB: Vocal melody and text only encoded.
!!NB: First instance of melodic material only encoded.
**kern	**silbe
*clef G2	*
*k[b-e-a-d-]	*
*M6/8	*
!! I can scarcely believe there is a French song
!! In 6/8 time
=1	=1
4r	.
8r	.
4r	.
{(8cc	{He/-
=2	=2
2.dd-)	-las!
=3	=3
8cc	Je
8g	sais
8a-	un
4b-	chant
8cc	d'a-
=4	=4
(8b-	-mour,
8a-	|
8g)}	|}
{(8f	{Tris-
8g)	-te
8a-	et
=5	=5
4.g	gai
(8g	tour
16a-q	|
16gq	|
8f)	|
8en	a\
=6	=6
4cc}	tour,}
8r	.
{(8f	{Tris-
8g)	-te
8a-	et
=7	=7
4.g	gai
(8g	tour
16a-q	|
16gq	|
8f)	|
8en	a\
=8	=8
4f}	tour.}
8r	.
4r	.
8r	.
=9	=9
2.r	.
=10	=10
4r	.
8r	.
{8a-	{Cet-
8b-	-te
8cc	chan-
=11	=11
4.ee-	-son
8dd-	douce
8b-	a\
8cc	l'o-
=12	=12
(4a-	-reil-
8g)}	-le,}
{(8f	{Pour
8a-)	|
8dd-	le
=13	=13
4cc	coeur
8a-	n'a
8f	pas
8a-	sa
8dd-	pa-
=14	=14
(4cc	-reil-
8a-)}	-le,}
{4a-	{Pour
8g	le
=15	=15
(8g	coeur
8f)	|
8en	n'a
8f	pas
8ee-	sa
8dd-	pa-
=16	=16
4.cc	-reil-
(32en	|
32cc	|
[16b-)	|
4b-]	|
=17	=17
[4.a-	-le
8a-]}	|}
8r	.
8r	.
=18	=18
2.r	.
!!mm. 19-70 melodically identical; written-out strophes
=71	=71
{(8g	{gai
8b-	|
8a-)	|
(8g	tour
16a-q	|
16gq	|
8f)	|
8en	a\
=72	=72
4f}	tour.}
8r	.
4r	.
8r	.
*-	*-
